X:0092
M:6/8
L:1/8
Q:3/8=120
K:D
a2f g2e|f2d ecA|a2f g2e|fee efg|
a2f g2e|f2d cBA|Bcd cde|d3  D3:|

